!!!COM: Anonymous
!!!OTL: O infame desleaute
!!!AGN: Song; Chanson; Rondeau
!!!SCT: Ano3118
!!!SCA: Ano3118
!!!SMS: Dijon Chansonnier
!!!folio: 151v-152r
!!!SMS2: Wolf
!!!voices: 3
**kern	**kern	**kern
*staff3	*staff2	*staff1
*Ivox	*Ivox	*Ivox
*I"Contra	*I"Tenor	*I"Discantus
*I'C	*I'T	*I'D
*clefF4	*clefGv2	*clefG2
*k[b-]	*k[b-]	*k[b-]
*M3/1	*M3/1	*M3/1
*met(O)	*met(O)	*met(O)
=1	=1	=1
!	!	!LO:TX:Z=24:X=-40:t=D: flat sig. is editorial
1d	0G	1.g
1G	.	.
.	.	2e
1D	1d	2f
.	.	4e
.	.	4f
=2	=2	=2
2.d	0G	2g
.	.	2d
4c	.	.
2B-	.	4e
.	.	4d
4A	.	4c
4G	.	4B-
1F	1c	1A
=3	=3	=3
2G	2B-	2G
2d	1G	2r
2B-	.	1g
2G	2B-	.
1D	1A	1a
=4	=4	=4
1d	1.G	2b-
.	.	2g
2r	.	2b-
1.D	1.A	2.a
.	.	4g
.	.	[2f
=5	=5	=5
1D	1d	4f]
.	.	4g
.	.	2b-
2F	2c	2a
2G	2B-	1g
1D	1A	.
.	.	2f
=6	=6	=6
0d	0G	2r
.	.	2g
.	.	2g
.	.	2g
2.B-	2r	1d
.	2G	.
4c	.	.
=7	=7	=7
1d	2G	1.b-
.	2G	.
2r	1D	.
2d	.	2.a
1G	1B-	.
.	.	4g
.	.	[2g
=8	=8	=8
1D	1A	2g]
.	.	2f
1d	0G	2.g
.	.	4f
1B-	.	2e
.	.	[2d
=9	=9	=9
1A	1D	2d]
.	.	2.d
2r	1G	.
.	.	4e
2G	.	4d
.	.	8cL
.	.	8B-J
1D	1F	1A
=10	=10	=10
2d	2r	2G
2G	2B-	2d
2d	2G	2B-
2B-	2d	2G
2G	2B-	2.d
2B-	[2G	.
.	.	4c
=11	=11	=11
2d	2G]	4B-
.	.	4A
1G	2.d	2B-
.	.	2G
.	4c	.
2r	4B-	1d
.	4A	.
1G	2.B-	.
.	.	2g
.	4G	.
=12	=12	=12
2D	1A	2f
2c	.	2.e
2B-	2G	.
.	.	4d
1A	2F	1d
.	1E	.
2G	.	2c#i
=13	=13	=13
0A	0.D	0d
1F	.	2r
.	.	[2a
=14	=14	=14
1D	1d	4a]
.	.	4g
.	.	2f
2r	2c	2e
2G	2B-	1d
2B-	1G	.
2d	.	[2b-
=15	=15	=15
2G	2.d	4b-]
.	.	4a
2F	.	2.a
.	4c	.
2D	2d	.
.	.	4g
2G	2B-	2g
1D	1A	2r
.	.	2f
=16	=16	=16
1.E	2G	2.g
.	1B-	.
.	.	4f
.	.	4e
.	.	4d
1F	2A	1c
.	1F	.
2A	.	2d
=17	=17	=17
2G	2G	2e
2F	2A	2f
1E	2B-	1g
.	1G	.
[1G	.	[1b-
.	[2d	.
=18	=18	=18
2G]	1d]	2b-]
4F	.	2.a
4E	.	.
2F	2c	.
.	.	4g
2G	2B-	2.g
2E	2G	.
.	.	4f
2G	2B-	4g
.	.	4e
=19	=19	=19
0.DN	0.AN	0.fN
=20	=20	=20
0D	1.A	0f
.	2.d	.
1D	.	1f
.	4c	.
.	2A	.
=21	=21	=21
1.d	2B-	1g
.	1G	.
.	.	2.b-
1G	1d	.
.	.	4a
.	.	4g
.	.	4f
2A	2c	[2e
=22	=22	=22
1c	1A	2e]
.	.	2f
2B-	2G	2g
2c	2F	1a
[1d	1D	.
.	.	2f
=23	=23	=23
1d]	2G	2b-
.	2F	2.a
1G	1B-	.
.	.	4g
.	.	1g
1D	1A	.
.	.	2f
=24	=24	=24
2r	1G	2g
2G	.	2.b-
2D	2d	.
.	.	4a
2F	2c	1a
1G	1B-	.
.	.	2g
=25	=25	=25
1D	2A	1a
.	1d	.
1F	.	2r
.	2c	1a
1G	1B-	.
.	.	2g
=26	=26	=26
2D	2.A	2f
2C	.	2.e
.	4G	.
2c	2A	.
.	.	4d
1A	2F	1d
.	1E	.
2G	.	2c#i
=27	=27	=27
2A	2D	1d
2.B-	2.G	.
.	.	2r
4A	4F	.
4B-	2G	2g
4c	.	.
2d	2D	2f
2B-	2E	2g
=28	=28	=28
2A	2F	1d
2B-	1G	.
2G	.	2e
2D	2A	2f
2G	2B-	1g
2C	[2c	.
=29	=29	=29
4F	2c]	2a
4A	.	.
2G	2d	2b-
1F	1f	2a
.	.	2.cc
1A	1e	.
.	.	4b-
.	.	4a
.	.	4g
=30	=30	=30
1D	1d	2f
.	.	4b-
.	.	2a
2F	2c	.
.	.	4g
2G	2B-	1g
1D	1A	.
.	.	2f#i
=31	=31	=31
0.dl	0.Gl	0.gl
==	==	==
*-	*-	*-
!!!RDF**kern: l=long note in original notation
!!!RDF**kern: i=editorial accidental
!!!RDF**kern: N=signum congruentiae
!!!ENC: Chris Gage 10-04-2016
!!!END: 2018/11/29/
!!!EED: Jesse Rodin
!!!EEV: 2018/12/07/
!!!ONB: Translated from MusicXML and edited on 2018/12/07/ by Craig Sapp
!!muse2ps: C^@{COM}\nDijon Chansonnier, @{folio}; also @{SMS2}^v95,95,150c140
